X:1
T:Mr. G. Ironside's (Bellabeg)
T:Mr. G. Ironside's (Bellabeg)
T:Alexander Walker
C:Alexander Walker
L:1/8
M:4/4
K:E
V:1 treble 
V:1
 c | B>EB>G c>GA<c | B<EB>G B>ce>f | g>fe<c B>ce>c | B<EB>G{G} F2 E :| B | e2 b>f g>ec<e | %7
 B<Ge>G (A/G/)F/E/ C<E | B,>EC>E B,>EA>c | B<EB>G{G} F2 E>B | e2 b>g (a/g/)f/e/ c>e | %11
 B>E c/B/A/G/ B<(E E>)d | c>eB>c G>BF>a | g<eb>g{g} f2 e || %14

